public/images/poses-lg/CorpseArmsUp.svg

<svg width="800" height="800" fill="none" xmlns="http://www.w3.org/2000/svg"><g clip-path="url(#a)"><path d="M240.272 660.355s-25.49-13.118-83.451-29.051c-8.763-2.411-60.092-12.012-78.409-15.412a25.22 25.22 0 0 1-11.389-5.311c-10.912-8.94-36.433-28.56-38.364-18.13-2.462 13.294-13.221 22.671 35.62 39.114 48.842 16.445 99.861 33.316 99.861 33.316l64.082 19.426 12.05-23.952Z" fill="#fff" stroke="#000" stroke-width="5" stroke-miterlimit="10"/><path d="M240.272 660.355s-25.49-13.118-83.451-29.051c-8.763-2.411-60.092-12.012-78.409-15.412a25.22 25.22 0 0 1-11.389-5.311c-10.912-8.94-36.433-28.56-38.364-18.13-2.462 13.294-13.221 22.671 35.62 39.114 48.842 16.445 99.861 33.316 99.861 33.316l64.082 19.426 12.05-23.952Z" stroke="#000" stroke-width="5" stroke-miterlimit="10"/><path d="M395.422 741.256s34.565 20.585 96.657 14.336c43.328-4.361 61.927-5.718 69.21-6.147a15.886 15.886 0 0 1 7.669 1.498c13.399 6.278 63.722 27.897 119.844 27.083 0 0 29.137 1.106 37.028 7.255 7.893 6.151 19.888-9.915 39.367-17.61 19.478-7.694 25.639-41.018 13.105-34.266-12.534 6.753-45.778 27.864-52.311 26.584-6.082-1.192-126.522-41.368-142.947-46.239a41.068 41.068 0 0 0-3.79-.932l-69.96-13.708s26.772-.7 38.67-1.632c25.393-1.987 36.287-1.353 57.771-8.706 7.254-2.48 14.952-3.548 22.577-2.813 2.27.217 4.724.564 7.349 1.078 12.405 2.431 14.225-42.925 14.471-59.922.059-4.15-3.778-7.353-7.695-6.256-5.171 1.45-6.212 14.3-8.916 28.925-4.21 22.769-31.121 19.258-37.614 17.997a121.7 121.7 0 0 0-6.149-1.009c-27.742-3.847-178.05-23.783-199.557-7.114-.005 0 17.916 49.555 5.221 81.598Z" fill="#fff" stroke="#000" stroke-width="5" stroke-miterlimit="10"/><path d="M395.422 741.256s34.565 20.585 96.657 14.336c43.328-4.361 61.927-5.718 69.21-6.147a15.886 15.886 0 0 1 7.669 1.498c13.399 6.278 63.722 27.897 119.844 27.083 0 0 29.137 1.106 37.028 7.255 7.893 6.151 19.888-9.915 39.367-17.61 19.478-7.694 25.639-41.018 13.105-34.266-12.534 6.753-45.778 27.864-52.311 26.584-6.082-1.192-126.522-41.368-142.947-46.239a41.068 41.068 0 0 0-3.79-.932l-69.96-13.708s26.772-.7 38.67-1.632c25.393-1.987 36.287-1.353 57.771-8.706 7.254-2.48 14.952-3.548 22.577-2.813 2.27.217 4.724.564 7.349 1.078 12.405 2.431 14.225-42.925 14.471-59.922.059-4.15-3.778-7.353-7.695-6.256-5.171 1.45-6.212 14.3-8.916 28.925-4.21 22.769-31.121 19.258-37.614 17.997a121.7 121.7 0 0 0-6.149-1.009c-27.742-3.847-178.05-23.783-199.557-7.114-.005 0 17.916 49.555 5.221 81.598Z" stroke="#000" stroke-width="5" stroke-miterlimit="10"/><path d="M222.934 660.97s23.36-10.177 38.255-22.309c14.896-12.133 68.505-5.852 136.481 23.49 0 0 26.018 19.08-2.171 79.162 0 0-71.416-30.025-103.056-15.73-31.64 14.297-31.959 7.132-40.776 13.977-8.816 6.844-47.102 45.115-83.933 53.177-31.789 6.96-76.075 3.236-87.607 2.085a27.745 27.745 0 0 0-5.587.007c-10.694 1.078-49.462 3.942-61.525-9.714-14.044-15.897 44.722-19.891 59.05-13.336 12.5 5.719 72.223-7.002 87.275-10.346a17.53 17.53 0 0 0 6.327-2.797c11.614-8.172 54.533-38.68 56.099-44.332 1.813-6.538 3.022-10.899-.035-16.507-3.058-5.608-14.648-13.718-37.188-15.607-22.541-1.89 38.391-21.22 38.391-21.22Z" fill="#fff" stroke="#000" stroke-width="5" stroke-miterlimit="10"/><path d="M222.787 659.917s23.326-9.258 38.182-21.44c14.855-12.184 66.485-6.059 134.558 23.048 0 0 29.15 19.593 1.16 79.771 0 0-72.586-30.41-104.178-16.006-31.593 14.405-31.936 6.242-40.73 13.117-8.794 6.874-46.953 45.276-83.757 53.465-31.766 7.069-76.064 3.498-87.6 2.387a27.745 27.745 0 0 0-5.587.026c-10.69 1.115-49.448 4.113-61.557-9.501-14.096-15.849 44.657-20.046 59.006-13.54 12.52 5.676 72.2-7.25 87.241-10.646a17.54 17.54 0 0 0 6.317-2.819c11.587-8.212 54.405-38.867 55.954-44.524 1.791-6.545 2.985-10.91-.091-16.507-3.076-5.598-14.693-13.668-37.239-15.479-22.546-1.812 38.321-21.352 38.321-21.352Z" stroke="#000" stroke-width="5" stroke-miterlimit="10"/><path d="M178.765 701.541c-8.613 2.027-14.854-3.773-24.5-5.112-15.316-2.133-24.524-24.718-18.727-41.316 7.651-21.921 86 .635 83.637 13.958-1.396 7.892-11.721 19.92-27.069 26.287-4.934 2.049-13.341 6.183-13.341 6.183Z" fill="#fff" stroke="#000" stroke-width="5" stroke-miterlimit="10"/><path d="M178.765 701.541c-8.613 2.027-14.854-3.773-24.5-5.112-15.316-2.133-24.524-24.718-18.727-41.316 7.651-21.921 86 .635 83.637 13.958-1.396 7.892-11.721 19.92-27.069 26.287-4.934 2.049-13.341 6.183-13.341 6.183Z" stroke="#000" stroke-width="5" stroke-miterlimit="10"/><path d="M147.302 648.581c13.617 4.447 35.44 22.262 25.894 38.457-10.735 18.201 3.141 13.665 7.228 13.222 4.086-.444 13.728-7.947 14.193-5.665.47 2.284-17.857 24.326-38.379 21.001-20.524-3.318-27.646-13.828-30.717-26.138-3.071-12.308.992-29.694 10.309-38.21 9.315-8.516 11.472-2.667 11.472-2.667Z" fill="#100200" stroke="#000" stroke-width="5" stroke-miterlimit="10"/><path d="M509.314 699.44s-28.289-5.504-39.577-5.426Z" fill="#fff"/><path d="M509.314 699.44s-28.289-5.504-39.577-5.426" stroke="#000" stroke-width="5" stroke-miterlimit="10"/><path d="M509.314 699.44s-28.289-5.504-39.577-5.426" stroke="#000" stroke-width="5" stroke-miterlimit="10"/><path d="M230.76 656.12s26.585 14.606-6.49 45.21Z" fill="#fff"/><path d="M230.76 656.12s26.585 14.606-6.49 45.21" stroke="#000" stroke-width="5" stroke-miterlimit="10"/><path d="M230.457 657.099s27.166 14.301-6.086 43.212" stroke="#000" stroke-width="5" stroke-miterlimit="10"/><path d="M209.5 726.5s13.617-31.791 69.5 3.5Z" fill="#fff"/><path d="M209.5 726.5s13.617-31.791 69.5 3.5" stroke="#000" stroke-width="5" stroke-miterlimit="10"/><path d="M210.5 725.5s13.117-30.291 69 5" stroke="#000" stroke-width="5" stroke-miterlimit="10"/><path d="M601.518 668.353s7.13 6.306 4.655 19.695Z" fill="#fff"/><path d="M601.518 668.353s7.13 6.306 4.655 19.695" stroke="#000" stroke-width="5" stroke-miterlimit="10"/><path d="M601.518 668.353s7.13 6.306 4.655 19.695" stroke="#000" stroke-width="5" stroke-miterlimit="10"/><path d="M711.085 755.371s10.06 14.047-7.349 23.915Z" fill="#fff"/><path d="M711.085 755.371s10.06 14.047-7.349 23.915" stroke="#000" stroke-width="5" stroke-miterlimit="10"/><path d="M711.085 755.371s10.06 14.047-7.349 23.915" stroke="#000" stroke-width="5" stroke-miterlimit="10"/></g><defs><clipPath id="a"><path fill="#fff" d="M0 0h800v800H0z"/></clipPath></defs></svg>

<svg width="800" height="800" viewBox="0 0 800 800" fill="none" xmlns="http://www.w3.org/2000/svg">
<g clip-path="url(#clip0_298_12127)">
<path d="M240.272 660.355C240.272 660.355 214.782 647.237 156.821 631.304C148.058 628.893 96.7294 619.292 78.4125 615.892C74.2348 615.115 70.3368 613.295 67.0231 610.581C56.1105 601.641 30.5896 582.021 28.6585 592.451C26.1972 605.745 15.438 615.122 64.2797 631.565C113.121 648.01 164.14 664.881 164.14 664.881L228.222 684.307L240.272 660.355Z" fill="white" stroke="black" stroke-width="5" stroke-miterlimit="10"/>
<path d="M240.272 660.355C240.272 660.355 214.782 647.237 156.821 631.304C148.058 628.893 96.7294 619.292 78.4125 615.892C74.2348 615.115 70.3368 613.295 67.0231 610.581C56.1105 601.641 30.5896 582.021 28.6585 592.451C26.1972 605.745 15.438 615.122 64.2797 631.565C113.121 648.01 164.14 664.881 164.14 664.881L228.222 684.307L240.272 660.355Z" stroke="black" stroke-width="5" stroke-miterlimit="10"/>
<path d="M395.422 741.256C395.422 741.256 429.987 761.841 492.079 755.592C535.407 751.231 554.006 749.874 561.289 749.445C563.928 749.292 566.553 749.816 568.958 750.943C582.357 757.221 632.68 778.84 688.802 778.026C688.802 778.026 717.939 779.132 725.83 785.281C733.723 791.432 745.718 775.366 765.197 767.671C784.675 759.977 790.836 726.653 778.302 733.405C765.768 740.158 732.524 761.269 725.991 759.989C719.909 758.797 599.469 718.621 583.044 713.75C581.795 713.379 580.529 713.068 579.254 712.818L509.294 699.11C509.294 699.11 536.066 698.41 547.964 697.478C573.357 695.491 584.251 696.125 605.735 688.772C612.989 686.292 620.687 685.224 628.312 685.959C630.582 686.176 633.036 686.523 635.661 687.037C648.066 689.468 649.886 644.112 650.132 627.115C650.191 622.965 646.354 619.762 642.437 620.859C637.266 622.309 636.225 635.159 633.521 649.784C629.311 672.553 602.4 669.042 595.907 667.781C593.858 667.387 591.824 667.061 589.758 666.772C562.016 662.925 411.708 642.989 390.201 659.658C390.196 659.658 408.117 709.213 395.422 741.256Z" fill="white" stroke="black" stroke-width="5" stroke-miterlimit="10"/>
<path d="M395.422 741.256C395.422 741.256 429.987 761.841 492.079 755.592C535.407 751.231 554.006 749.874 561.289 749.445C563.928 749.292 566.553 749.816 568.958 750.943C582.357 757.221 632.68 778.84 688.802 778.026C688.802 778.026 717.939 779.132 725.83 785.281C733.723 791.432 745.718 775.366 765.197 767.671C784.675 759.977 790.836 726.653 778.302 733.405C765.768 740.158 732.524 761.269 725.991 759.989C719.909 758.797 599.469 718.621 583.044 713.75C581.795 713.379 580.529 713.068 579.254 712.818L509.294 699.11C509.294 699.11 536.066 698.41 547.964 697.478C573.357 695.491 584.251 696.125 605.735 688.772C612.989 686.292 620.687 685.224 628.312 685.959C630.582 686.176 633.036 686.523 635.661 687.037C648.066 689.468 649.886 644.112 650.132 627.115C650.191 622.965 646.354 619.762 642.437 620.859C637.266 622.309 636.225 635.159 633.521 649.784C629.311 672.553 602.4 669.042 595.907 667.781C593.858 667.387 591.824 667.061 589.758 666.772C562.016 662.925 411.708 642.989 390.201 659.658C390.196 659.658 408.117 709.213 395.422 741.256Z" stroke="black" stroke-width="5" stroke-miterlimit="10"/>
<path d="M222.934 660.97C222.934 660.97 246.294 650.793 261.189 638.661C276.085 626.528 329.694 632.809 397.67 662.151C397.67 662.151 423.688 681.231 395.499 741.313C395.499 741.313 324.083 711.288 292.443 725.583C260.803 739.88 260.484 732.715 251.667 739.56C242.851 746.404 204.565 784.675 167.734 792.737C135.945 799.697 91.6592 795.973 80.1267 794.822C78.2553 794.636 76.4096 794.639 74.5395 794.829C63.8462 795.907 25.0782 798.771 13.0147 785.115C-1.02902 769.218 57.7372 765.224 72.065 771.779C84.5658 777.498 144.288 764.777 159.34 761.433C161.615 760.927 163.749 759.989 165.667 758.636C177.281 750.464 220.2 719.956 221.766 714.304C223.579 707.766 224.788 703.405 221.731 697.797C218.673 692.189 207.083 684.079 184.543 682.19C162.002 680.3 222.934 660.97 222.934 660.97Z" fill="white" stroke="black" stroke-width="5" stroke-miterlimit="10"/>
<path d="M222.787 659.917C222.787 659.917 246.113 650.659 260.969 638.477C275.824 626.293 327.454 632.418 395.527 661.525C395.527 661.525 424.677 681.118 396.687 741.296C396.687 741.296 324.101 710.886 292.509 725.29C260.916 739.695 260.573 731.532 251.779 738.407C242.985 745.281 204.826 783.683 168.022 791.872C136.256 798.941 91.9581 795.37 80.4219 794.259C78.5499 794.079 76.7042 794.089 74.8347 794.285C64.1451 795.4 25.3866 798.398 13.2782 784.784C-0.817825 768.935 57.935 764.738 72.2843 771.244C84.8038 776.92 144.484 763.994 159.525 760.598C161.798 760.084 163.929 759.138 165.842 757.779C177.429 749.567 220.247 718.912 221.796 713.255C223.587 706.71 224.781 702.345 221.705 696.748C218.629 691.15 207.012 683.08 184.466 681.269C161.92 679.457 222.787 659.917 222.787 659.917Z" stroke="black" stroke-width="5" stroke-miterlimit="10"/>
<path d="M178.765 701.541C170.152 703.568 163.911 697.768 154.265 696.429C138.949 694.296 129.741 671.711 135.538 655.113C143.189 633.192 221.538 655.748 219.175 669.071C217.779 676.963 207.454 688.991 192.106 695.358C187.172 697.407 178.765 701.541 178.765 701.541Z" fill="white" stroke="black" stroke-width="5" stroke-miterlimit="10"/>
<path d="M178.765 701.541C170.152 703.568 163.911 697.768 154.265 696.429C138.949 694.296 129.741 671.711 135.538 655.113C143.189 633.192 221.538 655.748 219.175 669.071C217.779 676.963 207.454 688.991 192.106 695.358C187.172 697.407 178.765 701.541 178.765 701.541Z" stroke="black" stroke-width="5" stroke-miterlimit="10"/>
<path d="M147.302 648.581C160.919 653.028 182.742 670.843 173.196 687.038C162.461 705.239 176.337 700.703 180.424 700.26C184.51 699.816 194.152 692.313 194.617 694.595C195.087 696.879 176.76 718.921 156.238 715.596C135.714 712.278 128.592 701.768 125.521 689.458C122.45 677.15 126.513 659.764 135.83 651.248C145.145 642.732 147.302 648.581 147.302 648.581Z" fill="#100200" stroke="black" stroke-width="5" stroke-miterlimit="10"/>
<path d="M509.314 699.44C509.314 699.44 481.025 693.936 469.737 694.014Z" fill="white"/>
<path d="M509.314 699.44C509.314 699.44 481.025 693.936 469.737 694.014" stroke="black" stroke-width="5" stroke-miterlimit="10"/>
<path d="M509.314 699.44C509.314 699.44 481.025 693.936 469.737 694.014" stroke="black" stroke-width="5" stroke-miterlimit="10"/>
<path d="M230.76 656.12C230.76 656.12 257.345 670.726 224.27 701.33Z" fill="white"/>
<path d="M230.76 656.12C230.76 656.12 257.345 670.726 224.27 701.33" stroke="black" stroke-width="5" stroke-miterlimit="10"/>
<path d="M230.457 657.099C230.457 657.099 257.623 671.4 224.371 700.311" stroke="black" stroke-width="5" stroke-miterlimit="10"/>
<path d="M209.5 726.5C209.5 726.5 223.117 694.709 279 730Z" fill="white"/>
<path d="M209.5 726.5C209.5 726.5 223.117 694.709 279 730" stroke="black" stroke-width="5" stroke-miterlimit="10"/>
<path d="M210.5 725.5C210.5 725.5 223.617 695.209 279.5 730.5" stroke="black" stroke-width="5" stroke-miterlimit="10"/>
<path d="M601.518 668.353C601.518 668.353 608.648 674.659 606.173 688.048Z" fill="white"/>
<path d="M601.518 668.353C601.518 668.353 608.648 674.659 606.173 688.048" stroke="black" stroke-width="5" stroke-miterlimit="10"/>
<path d="M601.518 668.353C601.518 668.353 608.648 674.659 606.173 688.048" stroke="black" stroke-width="5" stroke-miterlimit="10"/>
<path d="M711.085 755.371C711.085 755.371 721.145 769.418 703.736 779.286Z" fill="white"/>
<path d="M711.085 755.371C711.085 755.371 721.145 769.418 703.736 779.286" stroke="black" stroke-width="5" stroke-miterlimit="10"/>
<path d="M711.085 755.371C711.085 755.371 721.145 769.418 703.736 779.286" stroke="black" stroke-width="5" stroke-miterlimit="10"/>
</g>
<defs>
<clipPath id="clip0_298_12127">
<rect width="800" height="800" fill="white"/>
</clipPath>
</defs>
</svg>
